src/assets/images/IconLineHide.svg

<svg width="82" height="3" viewBox="0 0 133 3" fill="none" xmlns="http://www.w3.org/2000/svg">
<path d="M0.809952 2.69995C0.269962 2.69995 0 2.16006 0 1.62007C0 1.08008 0.269962 0.81012 0.809952 0.81012H4.58979C5.12978 0.81012 5.66983 1.08008 5.66983 1.62007C5.66983 2.16006 5.12978 2.69995 4.58979 2.69995H0.809952ZM131.218 0.81012C131.758 0.81012 132.298 1.08008 132.298 1.62007C132.298 2.16006 131.758 2.69995 131.218 2.69995H127.438C126.898 2.69995 126.358 2.16006 126.358 1.62007C126.358 1.08008 126.898 0.81012 127.438 0.81012H131.218ZM121.498 0.81012C122.038 0.81012 122.578 1.08008 122.578 1.62007C122.578 2.16006 122.038 2.69995 121.498 2.69995H117.718C117.178 2.69995 116.638 2.16006 116.638 1.62007C116.638 1.08008 117.178 0.81012 117.718 0.81012H121.498ZM111.778 0.81012C112.318 0.81012 112.858 1.08008 112.858 1.62007C112.858 2.16006 112.318 2.69995 111.778 2.69995H107.998C107.458 2.69995 106.918 2.16006 106.918 1.62007C106.918 1.08008 107.458 0.81012 107.998 0.81012H111.778ZM102.058 0.81012C102.598 0.81012 103.138 1.08008 103.138 1.62007C103.138 2.16006 102.868 2.69995 102.058 2.69995H98.2781C97.7381 2.69995 97.1983 2.16006 97.1983 1.62007C97.1983 1.08008 97.7381 0.81012 98.2781 0.81012H102.058ZM92.3382 0.81012C92.8782 0.81012 93.1483 1.08008 93.1483 1.62007C93.1483 2.16006 92.8782 2.69995 92.3382 2.69995H88.5584C88.0184 2.69995 87.4783 2.16006 87.4783 1.62007C87.4783 1.08008 88.0184 0.81012 88.5584 0.81012H92.3382ZM82.6184 0.81012C83.1584 0.81012 83.4284 1.08008 83.4284 1.62007C83.4284 2.16006 83.1584 2.69995 82.6184 2.69995H78.8384C78.2985 2.69995 77.7586 2.16006 77.7586 1.62007C77.7586 1.08008 78.2985 0.81012 78.8384 0.81012H82.6184ZM72.8987 0.81012C73.4387 0.81012 73.7086 1.08008 73.7086 1.62007C73.7086 2.16006 73.4387 2.69995 72.8987 2.69995H69.1187C68.5787 2.69995 68.0386 2.16006 68.0386 1.62007C68.0386 1.08008 68.5787 0.81012 69.1187 0.81012H72.8987ZM63.1788 0.81012C63.7188 0.81012 63.9887 1.08008 63.9887 1.62007C63.9887 2.16006 63.7188 2.69995 63.1788 2.69995H59.3989C58.8589 2.69995 58.3189 2.16006 58.3189 1.62007C58.3189 1.08008 58.8589 0.81012 59.3989 0.81012H63.1788ZM53.459 0.81012C53.999 0.81012 54.269 1.08008 54.269 1.62007C54.269 2.16006 53.999 2.69995 53.459 2.69995H49.679C49.139 2.69995 48.5991 2.16006 48.5991 1.62007C48.5991 1.08008 49.139 0.81012 49.679 0.81012H53.459ZM43.7391 0.81012C44.2791 0.81012 44.8191 1.08008 44.8191 1.62007C44.8191 2.16006 44.2791 2.69995 43.7391 2.69995H39.9592C39.4193 2.69995 38.8792 2.16006 38.8792 1.62007C38.8792 1.08008 39.4193 0.81012 39.9592 0.81012H43.7391ZM34.0193 0.81012C34.5593 0.81012 35.0994 1.08008 35.0994 1.62007C35.0994 2.16006 34.5593 2.69995 34.0193 2.69995H30.2393C29.6993 2.69995 29.1594 2.16006 29.1594 1.62007C29.1594 1.08008 29.6993 0.81012 30.2393 0.81012H34.0193ZM24.2996 0.81012C24.8396 0.81012 25.3794 1.08008 25.3794 1.62007C25.3794 2.16006 24.8396 2.69995 24.2996 2.69995H20.5196C19.9796 2.69995 19.4395 2.16006 19.4395 1.62007C19.4395 1.08008 19.9796 0.81012 20.5196 0.81012H24.2996ZM14.5796 0.81012C15.1196 0.81012 15.6597 1.08008 15.6597 1.62007C15.6597 2.16006 15.1196 2.69995 14.5796 2.69995H10.7998C10.2598 2.69995 9.71976 2.16006 9.71976 1.62007C9.71976 1.08008 10.2598 0.81012 10.7998 0.81012H14.5796Z" fill="white" fill-opacity="0.4"/>
</svg>

<svg width="82" height="3" viewBox="0 0 133 3" fill="none" xmlns="http://www.w3.org/2000/svg"><path d="M.81 2.7C.27 2.7 0 2.16 0 1.62S.27.81.81.81h3.78c.54 0 1.08.27 1.08.81S5.13 2.7 4.59 2.7H.81zM131.218.81c.54 0 1.08.27 1.08.81s-.54 1.08-1.08 1.08h-3.78c-.54 0-1.08-.54-1.08-1.08s.54-.81 1.08-.81h3.78zm-9.72 0c.54 0 1.08.27 1.08.81s-.54 1.08-1.08 1.08h-3.78c-.54 0-1.08-.54-1.08-1.08s.54-.81 1.08-.81h3.78zm-9.72 0c.54 0 1.08.27 1.08.81s-.54 1.08-1.08 1.08h-3.78c-.54 0-1.08-.54-1.08-1.08s.54-.81 1.08-.81h3.78zm-9.72 0c.54 0 1.08.27 1.08.81s-.27 1.08-1.08 1.08h-3.78c-.54 0-1.08-.54-1.08-1.08s.54-.81 1.08-.81h3.78zm-9.72 0c.54 0 .81.27.81.81s-.27 1.08-.81 1.08h-3.78c-.54 0-1.08-.54-1.08-1.08s.54-.81 1.08-.81h3.78zm-9.72 0c.54 0 .81.27.81.81s-.27 1.08-.81 1.08h-3.78c-.54 0-1.08-.54-1.08-1.08s.54-.81 1.08-.81h3.78zm-9.72 0c.54 0 .81.27.81.81s-.27 1.08-.81 1.08h-3.78c-.54 0-1.08-.54-1.08-1.08s.54-.81 1.08-.81h3.78zm-9.72 0c.54 0 .81.27.81.81s-.27 1.08-.81 1.08h-3.78c-.54 0-1.08-.54-1.08-1.08s.54-.81 1.08-.81h3.78zm-9.719 0c.54 0 .81.27.81.81s-.27 1.08-.81 1.08h-3.78c-.54 0-1.08-.54-1.08-1.08s.54-.81 1.08-.81h3.78zm-9.72 0c.54 0 1.08.27 1.08.81s-.54 1.08-1.08 1.08h-3.78c-.54 0-1.08-.54-1.08-1.08s.54-.81 1.08-.81h3.78zm-9.72 0c.54 0 1.08.27 1.08.81s-.54 1.08-1.08 1.08h-3.78c-.54 0-1.08-.54-1.08-1.08s.54-.81 1.08-.81h3.78zm-9.72 0c.54 0 1.08.27 1.08.81S24.84 2.7 24.3 2.7h-3.78c-.54 0-1.08-.54-1.08-1.08s.54-.81 1.08-.81h3.78zm-9.72 0c.54 0 1.08.27 1.08.81s-.54 1.08-1.08 1.08H10.8c-.54 0-1.08-.54-1.08-1.08s.54-.81 1.08-.81h3.78z" fill="#fff" fill-opacity=".4"/></svg>
